; generated by PrusaSlicer 2.2.0+win64 on 2021-01-24 at 23:17:53 UTC

; 

; external perimeters extrusion width = 0.45mm
; perimeters extrusion width = 0.45mm
; infill extrusion width = 0.45mm
; solid infill extrusion width = 0.45mm
; top infill extrusion width = 0.40mm
; support material extrusion width = 0.38mm
; first layer extrusion width = 0.42mm

M201 X500 Y500 Z100 E5000 ; sets maximum accelerations, mm/sec^2
M203 X500 Y500 Z10 E60 ; sets maximum feedrates, mm/sec
M204 P500 R1000 T500 ; sets acceleration (P, T) and retract acceleration (R), mm/sec^2
M205 X8.00 Y8.00 Z0.40 E5.00 ; sets the jerk limits, mm/sec
M205 S0 T0 ; sets the minimum extruding and travel feed rate, mm/sec
M107
G90 ; use absolute coordinates
M83 ; extruder relative mode
M104 S200 ; set extruder temp
M140 S60 ; set bed temp
M190 S60 ; wait for bed temp
M109 S200 ; wait for extruder temp
G28 ; home all
M420 S1 ; Enable last saved mesh data from G29 command
G1 Z2 F240
G1 X2 Y10 F3000
G1 Z0.28 F240
G92 E0.0
G1 Y190 E15.0 F1500.0 ; intro line
G1 X2.3 F5000
G1 Y10 E30 F1200.0 ; intro line
G92 E0.0
G21 ; set units to millimeters
G90 ; use absolute coordinates
M83 ; use relative distances for extrusion
; Filament gcode
;BEFORE_LAYER_CHANGE
;0.2


G1 E-5.00000 F3600.00000
G1 Z0.200 F9000.000
;AFTER_LAYER_CHANGE
;0.2
G1 X77.423 Y77.101
G1 E5.00000 F2400.00000
G1 F1200.000
G1 X77.896 Y76.744 E0.01858
G1 X78.439 Y76.516 E0.01846
G1 X79.025 Y76.429 E0.01858
G1 X125.841 Y76.428 E1.46788
G1 X141.209 Y76.616 E0.48190
G1 X141.938 Y76.827 E0.02378
G1 X142.560 Y77.254 E0.02367
G1 X143.019 Y77.858 E0.02378
G1 X143.264 Y78.576 E0.02378
G1 X143.291 Y94.624 E0.50318
G1 X138.547 Y147.771 E1.67302
G1 X138.434 Y148.303 E0.01704
G1 X138.206 Y148.792 E0.01692
G1 X137.833 Y149.257 E0.01870
G1 X137.355 Y149.615 E0.01870
G1 X136.804 Y149.842 E0.01870
G1 X136.213 Y149.925 E0.01870
G1 X82.165 Y149.926 E1.69465
G1 X81.526 Y149.834 E0.02024
G1 X80.935 Y149.574 E0.02024
G1 X80.497 Y149.227 E0.01752
G1 X80.152 Y148.788 E0.01752
G1 X79.917 Y148.277 E0.01763
G1 X79.810 Y147.729 E0.01752
G1 X76.706 Y94.410 E1.67460
G1 X76.703 Y78.756 E0.49082
G1 X76.798 Y78.137 E0.01965
G1 X77.054 Y77.560 E0.01977
G1 X77.385 Y77.148 E0.01658
G1 E-3.50000 F3600.00000
G1 F7200.000
G1 X77.896 Y76.744 E-0.30921
G1 X78.439 Y76.516 E-0.27972
G1 X79.025 Y76.429 E-0.28151
G1 X80.193 Y76.429 E-0.55456
G1 E-0.07500 F3600.00000
G1 X131.823 Y141.932 F9000.000
G1 E5.00000 F2400.00000
G1 F1200.000
G1 X132.125 Y141.721 E0.01154
G1 X132.458 Y141.565 E0.01154
G1 X132.814 Y141.470 E0.01154
G1 X133.180 Y141.438 E0.01154
G1 X133.547 Y141.470 E0.01154
G1 X133.902 Y141.565 E0.01154
G1 X134.235 Y141.721 E0.01154
G1 X134.537 Y141.932 E0.01154
G1 X134.797 Y142.192 E0.01154
G1 X135.008 Y142.493 E0.01154
G1 X135.164 Y142.827 E0.01154
G1 X135.259 Y143.182 E0.01154
G1 X135.291 Y143.549 E0.01154
G1 X135.259 Y143.915 E0.01154
G1 X135.164 Y144.271 E0.01154
G1 X135.008 Y144.604 E0.01154
G1 X134.797 Y144.905 E0.01154
G1 X134.537 Y145.166 E0.01154
G1 X134.235 Y145.377 E0.01154
G1 X133.902 Y145.532 E0.01154
G1 X133.547 Y145.627 E0.01154
G1 X133.180 Y145.659 E0.01154
G1 X132.814 Y145.627 E0.01154
G1 X132.458 Y145.532 E0.01154
G1 X132.125 Y145.377 E0.01154
G1 X131.823 Y145.166 E0.01154
G1 X131.563 Y144.905 E0.01154
G1 X131.352 Y144.604 E0.01154
G1 X131.197 Y144.271 E0.01154
G1 X131.101 Y143.915 E0.01154
G1 X131.069 Y143.549 E0.01154
G1 X131.101 Y143.182 E0.01154
G1 X131.197 Y142.827 E0.01154
G1 X131.352 Y142.493 E0.01154
G1 X131.563 Y142.192 E0.01154
G1 X131.781 Y141.974 E0.00966
G1 X131.759 Y141.569 F9000.000
G1 E-3.50000 F3600.00000
G1 F7200.000
G1 X132.125 Y141.721 E-0.20290
G1 X132.458 Y141.565 E-0.17477
G1 X132.814 Y141.470 E-0.17477
G1 X133.180 Y141.438 E-0.17477
G1 X133.547 Y141.470 E-0.17477
G1 X133.902 Y141.565 E-0.17477
G1 X134.235 Y141.721 E-0.17477
G1 X134.535 Y141.930 E-0.17348
G1 E-0.07500 F3600.00000
G1 X111.669 Y143.549 F9000.000
G1 E5.00000 F2400.00000
G1 F1200.000
G1 X111.632 Y143.981 E0.01361
G1 X111.519 Y144.400 E0.01361
G1 X111.336 Y144.793 E0.01361
G1 X111.087 Y145.149 E0.01361
G1 X110.780 Y145.456 E0.01361
G1 X110.425 Y145.704 E0.01361
G1 X110.031 Y145.888 E0.01361
G1 X109.612 Y146.000 E0.01361
G1 X109.180 Y146.038 E0.01361
G1 X108.748 Y146.000 E0.01361
G1 X108.329 Y145.888 E0.01361
G1 X107.935 Y145.704 E0.01361
G1 X107.580 Y145.456 E0.01361
G1 X107.273 Y145.149 E0.01360
G1 X107.024 Y144.793 E0.01361
G1 X106.841 Y144.400 E0.01361
G1 X106.729 Y143.981 E0.01361
G1 X106.691 Y143.549 E0.01360
G1 X106.729 Y143.116 E0.01361
G1 X106.841 Y142.697 E0.01361
G1 X107.024 Y142.304 E0.01361
G1 X107.273 Y141.949 E0.01361
G1 X107.580 Y141.642 E0.01361
G1 X107.935 Y141.393 E0.01361
G1 X108.329 Y141.209 E0.01360
G1 X108.748 Y141.097 E0.01361
G1 X109.180 Y141.059 E0.01361
G1 X109.612 Y141.097 E0.01361
G1 X110.031 Y141.209 E0.01361
G1 X110.425 Y141.393 E0.01361
G1 X110.780 Y141.642 E0.01361
G1 X111.087 Y141.949 E0.01361
G1 X111.336 Y142.304 E0.01361
G1 X111.519 Y142.697 E0.01361
G1 X111.632 Y143.116 E0.01361
G1 X111.664 Y143.489 E0.01172
G1 X111.289 Y143.522 F9000.000
G1 F1200.000
G1 X111.259 Y143.915 E0.01237
G1 X111.164 Y144.271 E0.01154
G1 X111.008 Y144.604 E0.01154
G1 X110.797 Y144.905 E0.01154
G1 X110.537 Y145.166 E0.01154
G1 X110.235 Y145.377 E0.01154
G1 X109.902 Y145.532 E0.01154
G1 X109.547 Y145.627 E0.01154
G1 X109.180 Y145.659 E0.01154
G1 X108.814 Y145.627 E0.01154
G1 X108.458 Y145.532 E0.01154
G1 X108.125 Y145.377 E0.01154
G1 X107.823 Y145.166 E0.01154
G1 X107.563 Y144.905 E0.01154
G1 X107.352 Y144.604 E0.01154
G1 X107.197 Y144.271 E0.01154
G1 X107.101 Y143.915 E0.01154
G1 X107.069 Y143.549 E0.01154
G1 X107.101 Y143.182 E0.01154
G1 X107.197 Y142.827 E0.01154
G1 X107.352 Y142.493 E0.01154
G1 X107.563 Y142.192 E0.01154
G1 X107.823 Y141.932 E0.01154
G1 X108.125 Y141.721 E0.01154
G1 X108.458 Y141.565 E0.01154
G1 X108.814 Y141.470 E0.01154
G1 X109.180 Y141.438 E0.01154
G1 X109.547 Y141.470 E0.01154
G1 X109.902 Y141.565 E0.01154
G1 X110.235 Y141.721 E0.01154
G1 X110.537 Y141.932 E0.01154
G1 X110.797 Y142.192 E0.01154
G1 X111.008 Y142.493 E0.01154
G1 X111.164 Y142.827 E0.01154
G1 X111.259 Y143.182 E0.01154
G1 X111.283 Y143.462 E0.00881
G1 X111.632 Y143.716 F9000.000
G1 E-3.50000 F3600.00000
G1 F7200.000
G1 X111.259 Y143.915 E-0.21559
G1 X111.164 Y144.271 E-0.17477
G1 X111.008 Y144.604 E-0.17477
G1 X110.797 Y144.905 E-0.17477
G1 X110.537 Y145.166 E-0.17477
G1 X110.235 Y145.377 E-0.17477
G1 X109.902 Y145.532 E-0.17477
G1 X109.575 Y145.620 E-0.16079
G1 E-0.07500 F3600.00000
G1 X135.593 Y140.136 F9000.000
G1 E5.00000 F2400.00000
G1 F1200.000
G1 X135.593 Y142.972 E0.08894
G1 X135.519 Y142.697 E0.00893
G1 X135.336 Y142.304 E0.01360
G1 X135.087 Y141.949 E0.01361
G1 X134.780 Y141.642 E0.01361
G1 X134.425 Y141.393 E0.01361
G1 X134.031 Y141.209 E0.01360
G1 X133.612 Y141.097 E0.01361
G1 X133.180 Y141.059 E0.01361
G1 X132.748 Y141.097 E0.01361
G1 X132.329 Y141.209 E0.01361
G1 X131.935 Y141.393 E0.01360
G1 X131.580 Y141.642 E0.01361
G1 X131.273 Y141.949 E0.01361
G1 X131.024 Y142.304 E0.01360
G1 X130.841 Y142.697 E0.01361
G1 X130.729 Y143.116 E0.01361
G1 X130.691 Y143.549 E0.01361
G1 X130.729 Y143.981 E0.01361
G1 X130.841 Y144.400 E0.01361
G1 X131.024 Y144.793 E0.01361
G1 X131.273 Y145.149 E0.01361
G1 X131.580 Y145.456 E0.01360
G1 X131.935 Y145.704 E0.01361
G1 X132.329 Y145.888 E0.01361
G1 X132.748 Y146.000 E0.01361
G1 X133.180 Y146.038 E0.01361
G1 X133.612 Y146.000 E0.01361
G1 X134.031 Y145.888 E0.01361
G1 X134.425 Y145.704 E0.01361
G1 X134.780 Y145.456 E0.01361
G1 X135.087 Y145.149 E0.01361
G1 X135.336 Y144.793 E0.01361
G1 X135.519 Y144.400 E0.01361
G1 X135.593 Y144.125 E0.00893
G1 X135.593 Y146.962 E0.08894
G1 X82.767 Y146.962 E1.65632
G1 X82.767 Y144.125 E0.08894
G1 X82.841 Y144.400 E0.00893
G1 X83.024 Y144.793 E0.01361
G1 X83.273 Y145.149 E0.01361
G1 X83.580 Y145.456 E0.01360
G1 X83.935 Y145.704 E0.01361
G1 X84.329 Y145.888 E0.01361
G1 X84.748 Y146.000 E0.01361
G1 X85.180 Y146.038 E0.01361
G1 X85.612 Y146.000 E0.01361
G1 X86.031 Y145.888 E0.01361
G1 X86.425 Y145.704 E0.01361
G1 X86.780 Y145.456 E0.01360
G1 X87.087 Y145.149 E0.01361
G1 X87.336 Y144.793 E0.01361
G1 X87.519 Y144.400 E0.01361
G1 X87.632 Y143.981 E0.01361
G1 X87.669 Y143.549 E0.01361
G1 X87.632 Y143.116 E0.01361
G1 X87.519 Y142.697 E0.01361
G1 X87.336 Y142.304 E0.01360
G1 X87.087 Y141.949 E0.01361
G1 X86.780 Y141.642 E0.01361
G1 X86.425 Y141.393 E0.01361
G1 X86.031 Y141.209 E0.01361
G1 X85.612 Y141.097 E0.01361
G1 X85.180 Y141.059 E0.01361
G1 X84.748 Y141.097 E0.01361
G1 X84.329 Y141.209 E0.01361
G1 X83.935 Y141.393 E0.01361
G1 X83.580 Y141.642 E0.01361
G1 X83.273 Y141.949 E0.01361
G1 X83.024 Y142.304 E0.01361
G1 X82.841 Y142.697 E0.01361
G1 X82.767 Y142.972 E0.00893
G1 X82.767 Y140.136 E0.08894
G1 X135.533 Y140.136 E1.65444
G1 E-3.50000 F3600.00000
G1 F7200.000
G1 X135.593 Y142.972 E-1.34772
G1 X135.551 Y142.815 E-0.07728
G1 E-0.07500 F3600.00000
G1 X87.291 Y143.549 F9000.000
G1 E5.00000 F2400.00000
G1 F1200.000
G1 X87.259 Y143.915 E0.01154
G1 X87.164 Y144.271 E0.01154
G1 X87.008 Y144.604 E0.01154
G1 X86.797 Y144.905 E0.01154
G1 X86.537 Y145.166 E0.01154
G1 X86.235 Y145.377 E0.01154
G1 X85.902 Y145.532 E0.01154
G1 X85.547 Y145.627 E0.01154
G1 X85.180 Y145.659 E0.01154
G1 X84.814 Y145.627 E0.01154
G1 X84.458 Y145.532 E0.01154
G1 X84.125 Y145.377 E0.01154
G1 X83.823 Y145.166 E0.01154
G1 X83.563 Y144.905 E0.01154
G1 X83.352 Y144.604 E0.01154
G1 X83.197 Y144.271 E0.01154
G1 X83.101 Y143.915 E0.01154
G1 X83.069 Y143.549 E0.01154
G1 X83.101 Y143.182 E0.01154
G1 X83.197 Y142.827 E0.01154
G1 X83.352 Y142.493 E0.01154
G1 X83.563 Y142.192 E0.01154
G1 X83.823 Y141.932 E0.01154
G1 X84.125 Y141.721 E0.01154
G1 X84.458 Y141.565 E0.01154
G1 X84.814 Y141.470 E0.01154
G1 X85.180 Y141.438 E0.01154
G1 X85.547 Y141.470 E0.01154
G1 X85.902 Y141.565 E0.01154
G1 X86.235 Y141.721 E0.01154
G1 X86.537 Y141.932 E0.01154
G1 X86.797 Y142.192 E0.01154
G1 X87.008 Y142.493 E0.01154
G1 X87.164 Y142.827 E0.01154
G1 X87.259 Y143.182 E0.01154
G1 X87.286 Y143.489 E0.00966
G1 X87.610 Y143.733 F9000.000
G1 E-3.50000 F3600.00000
G1 F7200.000
G1 X87.259 Y143.915 E-0.20290
G1 X87.164 Y144.271 E-0.17477
G1 X87.008 Y144.604 E-0.17477
G1 X86.797 Y144.905 E-0.17477
G1 X86.537 Y145.166 E-0.17477
G1 X86.235 Y145.377 E-0.17477
G1 X85.902 Y145.532 E-0.17477
G1 X85.549 Y145.627 E-0.17348
G1 E-0.07500 F3600.00000
G1 X82.390 Y139.759 F9000.000
G1 E5.00000 F2400.00000
G1 F1200.000
G1 X135.970 Y139.759 E1.67996
G1 X135.970 Y147.339 E0.23767
G1 X82.390 Y147.339 E1.67996
G1 X82.390 Y139.819 E0.23578
G1 X82.790 Y139.777 F9000.000
G1 E-3.50000 F3600.00000
G1 F7200.000
G1 X85.390 Y139.815 E-1.42500
G1 E-0.07500 F3600.00000
G1 X83.331 Y141.730 F9000.000
G1 E5.00000 F2400.00000
G1 F1200.000
G1 X83.050 Y141.449 E0.01250
G1 X83.050 Y140.915 E0.01677
G1 X83.493 Y141.358 E0.01966
G1 X83.809 Y141.140 E0.01206
G1 X83.088 Y140.419 E0.03203
G1 X83.622 Y140.419 E0.01677
G1 X84.173 Y140.970 E0.02449
G1 X84.585 Y140.848 E0.01349
G1 X84.156 Y140.419 E0.01907
G1 X84.690 Y140.419 E0.01677
G1 X85.057 Y140.786 E0.01633
G1 X85.180 Y140.775 E0.00387
G1 X85.619 Y140.814 E0.01383
G1 X85.224 Y140.419 E0.01755
G1 X85.758 Y140.419 E0.01677
G1 X92.018 Y146.679 E0.27797
G1 X92.552 Y146.679 E0.01677
G1 X86.292 Y140.419 E0.27797
G1 X86.826 Y140.419 E0.01677
G1 X93.086 Y146.679 E0.27797
G1 X93.620 Y146.679 E0.01677
G1 X87.360 Y140.419 E0.27797
G1 X87.894 Y140.419 E0.01677
G1 X94.154 Y146.679 E0.27797
G1 X94.688 Y146.679 E0.01677
G1 X88.428 Y140.419 E0.27797
G1 X88.962 Y140.419 E0.01677
G1 X95.222 Y146.679 E0.27797
G1 X95.756 Y146.679 E0.01677
G1 X89.496 Y140.419 E0.27797
G1 X90.030 Y140.419 E0.01677
G1 X96.290 Y146.679 E0.27797
G1 X96.824 Y146.679 E0.01677
G1 X90.564 Y140.419 E0.27797
G1 X91.098 Y140.419 E0.01677
G1 X97.358 Y146.679 E0.27797
G1 X97.892 Y146.679 E0.01677
G1 X91.632 Y140.419 E0.27797
G1 X92.166 Y140.419 E0.01677
G1 X98.426 Y146.679 E0.27797
G1 X98.960 Y146.679 E0.01677
G1 X92.700 Y140.419 E0.27797
G1 X93.234 Y140.419 E0.01677
G1 X99.494 Y146.679 E0.27797
G1 X100.028 Y146.679 E0.01677
G1 X93.768 Y140.419 E0.27797
G1 X94.302 Y140.419 E0.01677
G1 X100.562 Y146.679 E0.27797
G1 X101.096 Y146.679 E0.01677
G1 X94.836 Y140.419 E0.27797
G1 X95.370 Y140.419 E0.01677
G1 X101.630 Y146.679 E0.27797
G1 X102.164 Y146.679 E0.01677
G1 X95.904 Y140.419 E0.27797
G1 X96.438 Y140.419 E0.01677
G1 X102.698 Y146.679 E0.27797
G1 X103.232 Y146.679 E0.01677
G1 X96.972 Y140.419 E0.27797
G1 X97.506 Y140.419 E0.01677
G1 X103.766 Y146.679 E0.27797
G1 X104.300 Y146.679 E0.01677
G1 X98.040 Y140.419 E0.27797
G1 X98.574 Y140.419 E0.01677
G1 X104.834 Y146.679 E0.27797
G1 X105.368 Y146.679 E0.01677
G1 X99.108 Y140.419 E0.27797
G1 X99.642 Y140.419 E0.01677
G1 X105.902 Y146.679 E0.27797
G1 X106.436 Y146.679 E0.01677
G1 X100.176 Y140.419 E0.27797
G1 X100.710 Y140.419 E0.01677
G1 X106.970 Y146.679 E0.27797
G1 X107.504 Y146.679 E0.01677
G1 X101.244 Y140.419 E0.27797
G1 X101.778 Y140.419 E0.01677
G1 X108.038 Y146.679 E0.27797
G1 X108.572 Y146.679 E0.01677
G1 X102.312 Y140.419 E0.27797
G1 X102.846 Y140.419 E0.01677
G1 X106.448 Y144.021 E0.15995
G1 X106.407 Y143.549 E0.01488
G1 X106.415 Y143.454 E0.00299
G1 X103.380 Y140.419 E0.13478
G1 X103.914 Y140.419 E0.01677
G1 X106.473 Y142.978 E0.11363
G1 X106.592 Y142.562 E0.01356
G1 X104.448 Y140.419 E0.09519
G1 X104.982 Y140.419 E0.01677
G1 X106.762 Y142.198 E0.07902
G1 X106.977 Y141.879 E0.01208
G1 X105.516 Y140.419 E0.06486
G1 X106.050 Y140.419 E0.01677
G1 X107.227 Y141.595 E0.05225
G1 X107.398 Y141.424 E0.00759
G1 X107.511 Y141.345 E0.00433
G1 X106.584 Y140.419 E0.04114
G1 X107.118 Y140.419 E0.01677
G1 X107.830 Y141.130 E0.03160
G1 X108.194 Y140.960 E0.01262
G1 X107.652 Y140.419 E0.02406
G1 X108.186 Y140.419 E0.01677
G1 X108.609 Y140.842 E0.01878
G1 X108.699 Y140.818 E0.00291
G1 X109.085 Y140.784 E0.01219
G1 X108.720 Y140.419 E0.01622
G1 X109.254 Y140.419 E0.01677
G1 X109.890 Y141.054 E0.02823
G1 E-3.50000 F3600.00000
G1 F7200.000
G1 X109.254 Y140.419 E-0.42714
G1 X108.720 Y140.419 E-0.25365
G1 X109.085 Y140.784 E-0.24534
G1 X108.699 Y140.818 E-0.18435
G1 X108.609 Y140.842 E-0.04404
G1 X108.206 Y140.439 E-0.27048
G1 E-0.07500 F3600.00000
G1 X108.470 Y146.043 F9000.000
G1 E5.00000 F2400.00000
G1 F1200.000
G1 X109.106 Y146.679 E0.02824
G1 X109.640 Y146.679 E0.01677
G1 X109.275 Y146.314 E0.01622
G1 X109.662 Y146.280 E0.01219
G1 X109.751 Y146.256 E0.00291
G1 X110.174 Y146.679 E0.01878
G1 X110.708 Y146.679 E0.01677
G1 X110.166 Y146.137 E0.02406
G1 X110.531 Y145.967 E0.01262
G1 X111.242 Y146.679 E0.03160
G1 X111.776 Y146.679 E0.01677
G1 X110.850 Y145.752 E0.04114
G1 X110.963 Y145.673 E0.00433
G1 X111.134 Y145.502 E0.00759
G1 X112.310 Y146.679 E0.05224
G1 X112.844 Y146.679 E0.01677
G1 X111.384 Y145.218 E0.06485
G1 X111.599 Y144.899 E0.01208
G1 X113.378 Y146.679 E0.07902
G1 X113.912 Y146.679 E0.01677
G1 X111.768 Y144.535 E0.09519
G1 X111.887 Y144.120 E0.01356
G1 X114.446 Y146.679 E0.11363
G1 X114.980 Y146.679 E0.01677
G1 X111.945 Y143.644 E0.13477
G1 X111.953 Y143.549 E0.00299
G1 X111.912 Y143.077 E0.01488
G1 X115.514 Y146.679 E0.15995
G1 X116.048 Y146.679 E0.01677
G1 X109.788 Y140.419 E0.27797
G1 X110.322 Y140.419 E0.01677
G1 X116.582 Y146.679 E0.27797
G1 X117.116 Y146.679 E0.01677
G1 X110.856 Y140.419 E0.27797
G1 X111.390 Y140.419 E0.01677
G1 X117.650 Y146.679 E0.27797
G1 X118.184 Y146.679 E0.01677
G1 X111.924 Y140.419 E0.27797
G1 X112.458 Y140.419 E0.01677
G1 X118.718 Y146.679 E0.27797
G1 X119.252 Y146.679 E0.01677
G1 X112.992 Y140.419 E0.27797
G1 X113.526 Y140.419 E0.01677
G1 X119.786 Y146.679 E0.27797
G1 X120.320 Y146.679 E0.01677
G1 X114.060 Y140.419 E0.27797
G1 X114.594 Y140.419 E0.01677
G1 X120.854 Y146.679 E0.27797
G1 X121.388 Y146.679 E0.01677
G1 X115.128 Y140.419 E0.27797
G1 X115.662 Y140.419 E0.01677
G1 X121.922 Y146.679 E0.27797
G1 X122.456 Y146.679 E0.01677
G1 X116.196 Y140.419 E0.27797
G1 X116.730 Y140.419 E0.01677
G1 X122.990 Y146.679 E0.27797
G1 X123.524 Y146.679 E0.01677
G1 X117.264 Y140.419 E0.27797
G1 X117.798 Y140.419 E0.01677
G1 X124.058 Y146.679 E0.27797
G1 X124.592 Y146.679 E0.01677
