; generated by PrusaSlicer 2.2.0+win64 on 2021-01-25 at 02:00:13 UTC

; 

; external perimeters extrusion width = 0.45mm
; perimeters extrusion width = 0.45mm
; infill extrusion width = 0.45mm
; solid infill extrusion width = 0.45mm
; top infill extrusion width = 0.40mm
; support material extrusion width = 0.38mm
; first layer extrusion width = 0.42mm

M201 X500 Y500 Z100 E5000 ; sets maximum accelerations, mm/sec^2
M203 X500 Y500 Z10 E60 ; sets maximum feedrates, mm/sec
M204 P500 R1000 T500 ; sets acceleration (P, T) and retract acceleration (R), mm/sec^2
M205 X8.00 Y8.00 Z0.40 E5.00 ; sets the jerk limits, mm/sec
M205 S0 T0 ; sets the minimum extruding and travel feed rate, mm/sec
M107
G90 ; use absolute coordinates
M83 ; extruder relative mode
M104 S200 ; set extruder temp
M140 S60 ; set bed temp
M190 S60 ; wait for bed temp
M109 S200 ; wait for extruder temp
G28 ; home all
M420 S1 ; Enable last saved mesh data from G29 command
G1 Z2 F240
G1 X2 Y10 F3000
G1 Z0.28 F240
G92 E0.0
G1 Y190 E15.0 F1500.0 ; intro line
G1 X2.3 F5000
G1 Y10 E30 F1200.0 ; intro line
G92 E0.0
G21 ; set units to millimeters
G90 ; use absolute coordinates
M83 ; use relative distances for extrusion
; Filament gcode
;BEFORE_LAYER_CHANGE
;0.2


G1 E-5.00000 F3600.00000
G1 Z0.200 F9000.000
;AFTER_LAYER_CHANGE
;0.2
G1 X149.194 Y122.186
G1 E5.00000 F2400.00000
G1 F1200.000
G1 X147.349 Y123.848 E0.07787
G1 X145.856 Y124.777 E0.05513
G1 X101.029 Y144.216 E1.53199
G1 X99.124 Y144.976 E0.06430
G1 X96.916 Y145.597 E0.07192
G1 X94.739 Y145.954 E0.06918
G1 X92.532 Y146.075 E0.06930
G1 X90.359 Y145.959 E0.06823
G1 X88.136 Y145.596 E0.07061
G1 X85.837 Y144.940 E0.07495
G1 X83.971 Y144.191 E0.06306
G1 X82.125 Y143.216 E0.06545
G1 X80.202 Y141.924 E0.07263
G1 X78.509 Y140.485 E0.06966
G1 X76.921 Y138.794 E0.07275
G1 X75.662 Y137.132 E0.06536
G1 X74.587 Y135.351 E0.06524
G1 X73.631 Y133.316 E0.07048
G1 X72.894 Y131.147 E0.07185
G1 X72.405 Y128.892 E0.07234
G1 X69.478 Y103.162 E0.81195
G1 X69.478 Y98.390 E0.14960
G1 X69.581 Y97.884 E0.01621
G1 X69.792 Y97.412 E0.01621
G1 X70.676 Y96.001 E0.05220
G1 X71.477 Y94.965 E0.04106
G1 X91.091 Y75.318 E0.87047
G1 X91.966 Y74.541 E0.03666
G1 X92.715 Y74.009 E0.02882
G1 X94.049 Y73.345 E0.04673
G1 X95.284 Y72.962 E0.04052
G1 X96.493 Y72.763 E0.03843
G1 X97.232 Y72.749 E0.02319
G1 X98.238 Y72.806 E0.03159
G1 X124.268 Y75.672 E0.82109
G1 X126.314 Y75.991 E0.06491
G1 X128.357 Y76.529 E0.06626
G1 X130.425 Y77.319 E0.06939
G1 X132.190 Y78.205 E0.06193
G1 X133.865 Y79.267 E0.06220
G1 X135.602 Y80.630 E0.06923
G1 X137.113 Y82.102 E0.06614
G1 X138.520 Y83.804 E0.06923
G1 X139.623 Y85.448 E0.06208
G1 X140.554 Y87.191 E0.06196
G1 X141.373 Y89.172 E0.06720
G1 X150.423 Y114.660 E0.84804
G1 X150.532 Y115.339 E0.02157
G1 X150.522 Y119.411 E0.12766
G1 X150.299 Y120.218 E0.02626
G1 X149.224 Y122.133 E0.06888
G1 E-3.50000 F3600.00000
G1 F7200.000
G1 X147.349 Y123.848 E-1.20678
G1 X146.959 Y124.091 E-0.21822
G1 E-0.07500 F3600.00000
G1 X147.401 Y120.625 F9000.000
G1 E5.00000 F2400.00000
G1 F1200.000
G1 X147.401 Y118.387 E0.07016
G1 X147.160 Y119.105 E0.02375
G1 X146.857 Y119.719 E0.02145
G1 X146.647 Y120.036 E0.01193
G1 X146.647 Y121.290 E0.03930
G1 X146.455 Y121.505 E0.00904
G1 X145.893 Y121.969 E0.02285
G1 X145.893 Y120.942 E0.03220
G1 X145.457 Y121.324 E0.01818
G1 X145.139 Y121.539 E0.01204
G1 X145.139 Y122.458 E0.02880
G1 X144.895 Y122.603 E0.00890
G1 X144.385 Y122.808 E0.01725
G1 X144.385 Y121.961 E0.02656
G1 X144.197 Y122.051 E0.00652
G1 X143.631 Y122.244 E0.01877
G1 X143.631 Y123.048 E0.02523
G1 X143.076 Y123.178 E0.01785
G1 X142.876 Y123.194 E0.00628
G1 X142.876 Y122.407 E0.02466
G1 X142.122 Y122.461 E0.02371
G1 X142.122 Y123.251 E0.02478
G1 X141.368 Y123.194 E0.02372
G1 X141.368 Y122.407 E0.02466
G1 X140.614 Y122.244 E0.02419
G1 X140.614 Y123.048 E0.02523
G1 X140.237 Y122.960 E0.01214
G1 X139.860 Y122.808 E0.01275
G1 X139.860 Y121.961 E0.02656
G1 X139.406 Y121.737 E0.01586
G1 X139.106 Y121.539 E0.01129
G1 X139.106 Y122.458 E0.02880
G1 X138.527 Y122.114 E0.02110
G1 X138.351 Y121.969 E0.00714
G1 X138.351 Y120.942 E0.03220
G1 X138.252 Y120.852 E0.00421
G1 X137.801 Y120.337 E0.02145
G1 X137.597 Y120.036 E0.01140
G1 X137.597 Y121.290 E0.03930
G1 X137.153 Y120.791 E0.02096
G1 X136.843 Y120.313 E0.01785
G1 X136.843 Y118.387 E0.06037
G1 X136.708 Y117.700 E0.02196
G1 X136.664 Y117.018 E0.02145
G1 X136.708 Y116.305 E0.02239
G1 X136.843 Y115.618 E0.02196
G1 X136.843 Y113.669 E0.06112
G1 X137.457 Y112.845 E0.03221
G1 X137.597 Y112.710 E0.00610
G1 X137.597 Y113.969 E0.03946
G1 X137.801 Y113.668 E0.01139
G1 X138.252 Y113.153 E0.02145
G1 X138.351 Y113.064 E0.00421
G1 X138.351 Y112.038 E0.03217
G1 X138.929 Y111.631 E0.02214
G1 X139.106 Y111.544 E0.00618
G1 X139.106 Y112.466 E0.02892
G1 X139.406 Y112.268 E0.01129
G1 X139.860 Y112.044 E0.01586
G1 X139.860 Y111.184 E0.02698
G1 X140.614 Y110.945 E0.02480
G1 X140.614 Y111.761 E0.02560
G1 X141.368 Y111.598 E0.02419
G1 X141.368 Y110.815 E0.02456
G1 X141.644 Y110.772 E0.00875
G1 X142.122 Y110.772 E0.01500
G1 X142.122 Y111.544 E0.02420
G1 X142.876 Y111.598 E0.02371
G1 X142.876 Y110.815 E0.02456
G1 X143.546 Y110.918 E0.02124
G1 X143.631 Y110.945 E0.00278
G1 X143.631 Y111.761 E0.02560
G1 X144.197 Y111.954 E0.01876
G1 X144.385 Y112.044 E0.00652
G1 X144.385 Y111.184 E0.02698
G1 X144.458 Y111.207 E0.00242
G1 X145.139 Y111.544 E0.02382
G1 X145.139 Y112.466 E0.02892
G1 X145.457 Y112.681 E0.01204
G1 X145.893 Y113.064 E0.01818
G1 X145.893 Y112.038 E0.03217
G1 X146.098 Y112.182 E0.00786
G1 X146.647 Y112.710 E0.02390
G1 X146.647 Y113.969 E0.03946
G1 X146.857 Y114.286 E0.01193
G1 X147.160 Y114.900 E0.02145
G1 X147.401 Y115.618 E0.02375
G1 X147.401 Y113.669 E0.06112
G1 X147.824 Y114.446 E0.02776
G1 X148.155 Y115.387 E0.03127
G1 X148.155 Y119.190 E0.11924
G1 E-3.50000 F3600.00000
G1 F7200.000
G1 X148.155 Y116.190 E-1.42500
G1 E-0.07500 F3600.00000
G1 X145.139 Y118.586 F9000.000
G1 E5.00000 F2400.00000
G1 F1200.000
G1 X145.139 Y115.844 E0.08596
G1 X145.079 Y115.677 E0.00557
G1 X144.842 Y115.241 E0.01555
G1 X144.541 Y114.847 E0.01555
G1 X144.385 Y114.696 E0.00681
G1 X144.385 Y119.320 E0.14496
G1 X143.986 Y119.653 E0.01628
G1 X143.631 Y119.864 E0.01298
G1 X143.631 Y114.145 E0.17934
G1 X143.333 Y113.997 E0.01039
G1 X142.876 Y113.853 E0.01503
G1 X142.876 Y120.144 E0.19726
G1 X142.617 Y120.205 E0.00836
G1 X142.122 Y120.243 E0.01555
G1 X142.122 Y113.772 E0.20288
G1 X141.874 Y113.772 E0.00778
G1 X141.368 Y113.853 E0.01607
G1 X141.368 Y120.144 E0.19726
G1 X141.145 Y120.092 E0.00720
G1 X140.614 Y119.864 E0.01810
G1 X140.614 Y114.145 E0.17934
G1 X140.466 Y114.218 E0.00516
G1 X140.061 Y114.503 E0.01555
G1 X139.860 Y114.696 E0.00875
G1 X139.860 Y119.320 E0.14496
G1 X139.545 Y118.967 E0.01481
G1 X139.276 Y118.550 E0.01555
G1 X139.106 Y118.171 E0.01304
G1 X139.106 Y115.432 E0.08587
G1 E-3.50000 F3600.00000
G1 F7200.000
G1 X139.106 Y118.171 E-1.30081
G1 X139.213 Y118.409 E-0.12419
G1 E-0.07500 F3600.00000
G1 X136.089 Y114.867 F9000.000
G1 E5.00000 F2400.00000
G1 F1200.000
G1 X136.089 Y119.190 E0.13556
G1 E-3.50000 F3600.00000
G1 F7200.000
G1 X136.089 Y116.190 E-1.42500
G1 E-0.07500 F3600.00000
G1 X138.086 Y118.452 F9000.000
G1 E5.00000 F2400.00000
G1 F1200.000
G1 X137.912 Y117.819 E0.02059
G1 X137.839 Y117.185 E0.02001
G1 X137.861 Y116.512 E0.02112
G1 X137.987 Y115.866 E0.02063
G1 X138.209 Y115.248 E0.02059
G1 X138.514 Y114.688 E0.02001
G1 X138.919 Y114.150 E0.02112
G1 X139.394 Y113.694 E0.02063
G1 X139.931 Y113.316 E0.02059
G1 X140.502 Y113.033 E0.02001
G1 X141.144 Y112.827 E0.02112
G1 X141.794 Y112.726 E0.02063
G1 X142.451 Y112.726 E0.02059
G1 X143.081 Y112.824 E0.02001
G1 X143.724 Y113.024 E0.02112
G1 X144.314 Y113.316 E0.02063
G1 X144.851 Y113.694 E0.02059
G1 X145.324 Y114.149 E0.02059
G1 X145.711 Y114.657 E0.02001
G1 X146.035 Y115.247 E0.02112
G1 X146.258 Y115.866 E0.02063
G1 X146.383 Y116.511 E0.02059
G1 X146.408 Y117.167 E0.02059
G1 X146.333 Y117.819 E0.02059
G1 X146.159 Y118.452 E0.02059
G1 X145.890 Y119.051 E0.02059
G1 X145.533 Y119.603 E0.02059
G1 X145.096 Y120.093 E0.02059
G1 X144.590 Y120.511 E0.02059
G1 X144.025 Y120.846 E0.02059
G1 X143.416 Y121.092 E0.02059
G1 X142.777 Y121.241 E0.02059
G1 X142.122 Y121.291 E0.02059
G1 X141.468 Y121.241 E0.02059
G1 X140.828 Y121.092 E0.02059
G1 X140.236 Y120.853 E0.02001
G1 X139.656 Y120.511 E0.02112
G1 X139.148 Y120.093 E0.02063
G1 X138.724 Y119.616 E0.02001
G1 X138.355 Y119.053 E0.02112
G1 X138.110 Y118.507 E0.01875
G1 X138.454 Y118.353 F9000.000
G1 F1200.000
G1 X138.283 Y117.747 E0.01973
G1 X138.216 Y117.170 E0.01822
G1 X138.237 Y116.555 E0.01930
G1 X138.351 Y115.966 E0.01879
G1 X138.554 Y115.403 E0.01877
G1 X138.831 Y114.892 E0.01822
G1 X139.202 Y114.401 E0.01930
G1 X139.634 Y113.986 E0.01879
G1 X140.124 Y113.641 E0.01877
G1 X140.645 Y113.383 E0.01822
G1 X141.231 Y113.195 E0.01930
G1 X141.823 Y113.103 E0.01879
G1 X142.422 Y113.103 E0.01877
G1 X142.996 Y113.192 E0.01822
G1 X143.584 Y113.375 E0.01930
G1 X144.121 Y113.641 E0.01879
G1 X144.610 Y113.986 E0.01877
G1 X145.042 Y114.401 E0.01877
G1 X145.394 Y114.863 E0.01822
G1 X145.691 Y115.402 E0.01930
G1 X145.893 Y115.966 E0.01879
G1 X146.007 Y116.554 E0.01877
G1 X146.030 Y117.152 E0.01877
G1 X145.961 Y117.747 E0.01877
G1 X145.803 Y118.324 E0.01877
G1 X145.558 Y118.871 E0.01877
G1 X145.232 Y119.373 E0.01877
G1 X144.834 Y119.820 E0.01877
G1 X144.372 Y120.201 E0.01877
G1 X143.857 Y120.507 E0.01877
G1 X143.302 Y120.731 E0.01877
G1 X142.719 Y120.867 E0.01877
G1 X142.122 Y120.913 E0.01877
G1 X141.525 Y120.867 E0.01877
G1 X140.942 Y120.731 E0.01877
G1 X140.403 Y120.514 E0.01822
G1 X139.873 Y120.202 E0.01930
G1 X139.410 Y119.820 E0.01879
G1 X139.024 Y119.386 E0.01822
G1 X138.687 Y118.871 E0.01930
G1 X138.479 Y118.408 E0.01593
G1 X138.060 Y118.284 F9000.000
G1 X138.005 Y118.569
G1 F1200.000
G1 X137.861 Y118.144 E0.01404
G1 X137.748 Y117.578 E0.01809
G1 X137.711 Y117.003 E0.01809
G1 X137.748 Y116.427 E0.01809
G1 X137.861 Y115.861 E0.01809
G1 X138.046 Y115.314 E0.01809
G1 X138.302 Y114.797 E0.01809
G1 X138.622 Y114.317 E0.01809
G1 X139.000 Y113.886 E0.01799
G1 X139.437 Y113.502 E0.01821
G1 X139.916 Y113.182 E0.01809
G1 X140.434 Y112.927 E0.01809
G1 X140.980 Y112.741 E0.01809
G1 X141.546 Y112.629 E0.01809
G1 X142.122 Y112.591 E0.01809
G1 X142.695 Y112.628 E0.01799
G1 X143.264 Y112.741 E0.01821
G1 X143.810 Y112.927 E0.01809
G1 X144.328 Y113.182 E0.01809
G1 X144.808 Y113.503 E0.01809
G1 X145.239 Y113.881 E0.01799
G1 X145.622 Y114.317 E0.01821
G1 X145.943 Y114.797 E0.01809
G1 X146.198 Y115.314 E0.01809
G1 X146.384 Y115.861 E0.01809
G1 X146.496 Y116.427 E0.01809
G1 X146.534 Y117.003 E0.01809
G1 X146.496 Y117.578 E0.01809
G1 X146.384 Y118.144 E0.01809
G1 X146.198 Y118.691 E0.01809
G1 X145.943 Y119.208 E0.01809
G1 X145.622 Y119.688 E0.01809
G1 X145.244 Y120.120 E0.01799
G1 X144.808 Y120.503 E0.01821
G1 X144.328 Y120.823 E0.01809
G1 X143.810 Y121.078 E0.01809
G1 X143.264 Y121.264 E0.01809
G1 X142.698 Y121.377 E0.01809
G1 X142.122 Y121.414 E0.01809
G1 X141.546 Y121.377 E0.01809
G1 X140.980 Y121.264 E0.01809
G1 X140.434 Y121.078 E0.01809
G1 X139.916 Y120.823 E0.01809
G1 X139.437 Y120.503 E0.01809
G1 X139.005 Y120.124 E0.01799
G1 X138.622 Y119.688 E0.01821
G1 X138.302 Y119.208 E0.01809
G1 X138.024 Y118.625 E0.02025
G1 X137.667 Y118.747 F9000.000
G1 F1200.000
G1 X137.496 Y118.242 E0.01670
G1 X137.374 Y117.628 E0.01964
G1 X137.333 Y117.003 E0.01964
G1 X137.374 Y116.377 E0.01964
G1 X137.496 Y115.763 E0.01964
G1 X137.697 Y115.170 E0.01964
G1 X137.974 Y114.608 E0.01964
G1 X138.322 Y114.087 E0.01964
G1 X138.733 Y113.619 E0.01953
G1 X139.207 Y113.203 E0.01976
G1 X139.727 Y112.855 E0.01964
G1 X140.289 Y112.578 E0.01964
G1 X140.883 Y112.376 E0.01964
G1 X141.497 Y112.254 E0.01964
G1 X142.122 Y112.213 E0.01964
G1 X142.744 Y112.254 E0.01953
G1 X143.362 Y112.376 E0.01976
G1 X143.955 Y112.578 E0.01964
G1 X144.517 Y112.855 E0.01964
G1 X145.038 Y113.203 E0.01964
G1 X145.506 Y113.614 E0.01953
G1 X145.922 Y114.087 E0.01976
G1 X146.270 Y114.608 E0.01964
G1 X146.547 Y115.170 E0.01964
G1 X146.749 Y115.763 E0.01964
G1 X146.871 Y116.377 E0.01964
G1 X146.912 Y117.003 E0.01964
G1 X146.871 Y117.628 E0.01964
G1 X146.749 Y118.242 E0.01964
G1 X146.547 Y118.835 E0.01964
G1 X146.270 Y119.397 E0.01964
G1 X145.922 Y119.918 E0.01964
G1 X145.511 Y120.387 E0.01953
G1 X145.038 Y120.802 E0.01976
G1 X144.517 Y121.150 E0.01964
G1 X143.955 Y121.428 E0.01964
G1 X143.362 Y121.629 E0.01964
G1 X142.747 Y121.751 E0.01964
G1 X142.122 Y121.792 E0.01964
G1 X141.497 Y121.751 E0.01964
G1 X140.883 Y121.629 E0.01964
G1 X140.289 Y121.428 E0.01964
G1 X139.727 Y121.150 E0.01964
G1 X139.207 Y120.802 E0.01964
G1 X138.738 Y120.392 E0.01953
G1 X138.322 Y119.918 E0.01976
G1 X137.974 Y119.397 E0.01964
G1 X137.686 Y118.803 E0.02070
G1 X137.912 Y118.430 F9000.000
G1 E-3.50000 F3600.00000
G1 F7200.000
G1 X137.496 Y118.242 E-0.28147
G1 X137.374 Y117.628 E-0.29759
G1 X137.333 Y117.003 E-0.29759
G1 X137.374 Y116.377 E-0.29759
G1 X137.477 Y115.860 E-0.25077
G1 E-0.07500 F3600.00000
G1 X123.917 Y111.957 F9000.000
G1 E5.00000 F2400.00000
G1 F1200.000
G1 X123.713 Y112.247 E0.01113
G1 X123.462 Y112.498 E0.01113
G1 X123.172 Y112.702 E0.01113
G1 X122.850 Y112.852 E0.01113
G1 X122.507 Y112.944 E0.01113
G1 X122.154 Y112.975 E0.01113
G1 X121.800 Y112.944 E0.01113
G1 X121.457 Y112.852 E0.01113
G1 X121.136 Y112.702 E0.01113
G1 X120.845 Y112.498 E0.01113
G1 X120.600 Y112.253 E0.01086
G1 X120.391 Y111.957 E0.01137
G1 X120.241 Y111.635 E0.01114
G1 X120.149 Y111.292 E0.01113
G1 X120.118 Y110.939 E0.01113
G1 X120.149 Y110.585 E0.01113
G1 X120.241 Y110.242 E0.01113
G1 X120.391 Y109.921 E0.01113
G1 X120.594 Y109.630 E0.01113
G1 X120.845 Y109.379 E0.01113
G1 X121.136 Y109.176 E0.01113
G1 X121.457 Y109.026 E0.01113
G1 X121.800 Y108.934 E0.01113
G1 X122.145 Y108.904 E0.01086
G1 X122.507 Y108.934 E0.01137
G1 X122.850 Y109.026 E0.01114
G1 X123.172 Y109.176 E0.01113
G1 X123.462 Y109.379 E0.01113
G1 X123.713 Y109.630 E0.01113
G1 X123.917 Y109.921 E0.01113
G1 X124.067 Y110.242 E0.01113
G1 X124.158 Y110.585 E0.01113
G1 X124.189 Y110.939 E0.01113
G1 X124.158 Y111.292 E0.01113
G1 X124.067 Y111.635 E0.01113
G1 X123.942 Y111.902 E0.00925
G1 X124.094 Y112.264 F9000.000
G1 E-3.50000 F3600.00000
G1 F7200.000
G1 X123.713 Y112.247 E-0.19669
G1 X123.462 Y112.498 E-0.16856
G1 X123.172 Y112.702 E-0.16856
G1 X122.850 Y112.852 E-0.16856
G1 X122.507 Y112.944 E-0.16856
G1 X122.154 Y112.975 E-0.16856
G1 X121.800 Y112.944 E-0.16856
G1 X121.457 Y112.852 E-0.16856
G1 X121.365 Y112.809 E-0.04839
G1 E-0.07500 F3600.00000
G1 X135.845 Y97.498 F9000.000
G1 E5.00000 F2400.00000
G1 F1200.000
G1 X135.594 Y97.247 E0.01113
G1 X135.391 Y96.957 E0.01113
G1 X135.241 Y96.635 E0.01113
G1 X135.151 Y96.300 E0.01086
G1 X135.118 Y95.939 E0.01137
G1 X135.149 Y95.585 E0.01114
G1 X135.241 Y95.242 E0.01113
G1 X135.391 Y94.921 E0.01113
G1 X135.594 Y94.630 E0.01113
G1 X135.845 Y94.379 E0.01113
G1 X136.136 Y94.176 E0.01113
G1 X136.457 Y94.026 E0.01113
G1 X136.800 Y93.934 E0.01113
G1 X137.145 Y93.904 E0.01086
G1 X137.507 Y93.934 E0.01137
G1 X137.850 Y94.026 E0.01114
G1 X138.172 Y94.176 E0.01113
G1 X138.462 Y94.379 E0.01113
G1 X138.713 Y94.630 E0.01113
G1 X138.917 Y94.921 E0.01113
G1 X139.063 Y95.235 E0.01086
G1 X139.158 Y95.585 E0.01137
G1 X139.189 Y95.939 E0.01114
G1 X139.158 Y96.292 E0.01113
G1 X139.067 Y96.635 E0.01113
G1 X138.917 Y96.957 E0.01113
G1 X138.713 Y97.247 E0.01113
G1 X138.468 Y97.492 E0.01086
G1 X138.172 Y97.702 E0.01137
G1 X137.850 Y97.852 E0.01114
G1 X137.507 Y97.944 E0.01113
G1 X137.154 Y97.975 E0.01113
G1 X136.800 Y97.944 E0.01113
G1 X136.457 Y97.852 E0.01113
G1 X136.136 Y97.702 E0.01113
G1 X135.894 Y97.533 E0.00925
G1 X135.512 Y97.620 F9000.000
G1 E-3.50000 F3600.00000
G1 F7200.000
G1 X135.594 Y97.247 E-0.19669
G1 X135.391 Y96.957 E-0.16856
G1 X135.241 Y96.635 E-0.16856
G1 X135.151 Y96.300 E-0.16457
G1 X135.118 Y95.939 E-0.17228
G1 X135.149 Y95.585 E-0.16877
G1 X135.241 Y95.242 E-0.16856
G1 X135.391 Y94.921 E-0.16856
G1 X135.449 Y94.837 E-0.04845
G1 E-0.07500 F3600.00000
G1 X125.270 Y96.488 F9000.000
G1 E5.00000 F2400.00000
G1 F1200.000
